packages/kaspersky-hexa-ui-icons/src/iconsSVGs/24/Wizard.svg

<svg width="24" height="24" viewBox="0 0 24 24" fill="none" xmlns="http://www.w3.org/2000/svg">
<path d="M7.95184 1.8159C7.88741 1.64177 7.64113 1.64177 7.5767 1.8159L6.95976 3.48314C6.93951 3.53789 6.89634 3.58105 6.8416 3.60131L5.17435 4.21825C5.00023 4.28268 5.00023 4.52895 5.17435 4.59339L6.8416 5.21032C6.89634 5.23058 6.93951 5.27374 6.95976 5.32849L7.5767 6.99574C7.64113 7.16986 7.88741 7.16986 7.95184 6.99574L8.56878 5.32849C8.58904 5.27374 8.6322 5.23058 8.68694 5.21032L10.3542 4.59339C10.5283 4.52895 10.5283 4.28268 10.3542 4.21825L8.68694 3.60131C8.6322 3.58105 8.58904 3.53789 8.56878 3.48314L7.95184 1.8159Z" fill="black"/>
<path fill-rule="evenodd" clip-rule="evenodd" d="M13.0672 6.79552C13.4577 6.405 14.0908 6.405 14.4814 6.79552L17.3894 9.70351C17.7799 10.094 17.7799 10.7272 17.3894 11.1177L6.10874 22.3983C5.71822 22.7889 5.08505 22.7889 4.69453 22.3983L1.78655 19.4903C1.39602 19.0998 1.39602 18.4667 1.78655 18.0761L13.0672 6.79552ZM13.7743 8.91684L12.505 10.1862L13.9987 11.6799L15.268 10.4106L13.7743 8.91684ZM3.90787 18.7832L11.0907 11.6004L12.5845 13.0941L5.40164 20.277L3.90787 18.7832Z" fill="black"/>
<path d="M19.2223 2.12879C19.2868 1.95467 19.533 1.95467 19.5975 2.12879L20.2144 3.79604C20.2347 3.85078 20.2778 3.89395 20.3326 3.9142L21.9998 4.53114C22.1739 4.59557 22.1739 4.84185 21.9998 4.90628L20.3326 5.52322C20.2778 5.54348 20.2347 5.58664 20.2144 5.64138L19.5975 7.30863C19.533 7.48276 19.2868 7.48276 19.2223 7.30863L18.6054 5.64138C18.5851 5.58664 18.542 5.54348 18.4872 5.52322L16.82 4.90628C16.6459 4.84185 16.6459 4.59557 16.82 4.53114L18.4872 3.9142C18.542 3.89395 18.5851 3.85079 18.6054 3.79604L19.2223 2.12879Z" fill="black"/>
<path d="M18.9307 14.7919C18.8663 14.6178 18.62 14.6178 18.5556 14.7919L17.9386 16.4592C17.9184 16.5139 17.8752 16.5571 17.8205 16.5774L16.1532 17.1943C15.9791 17.2587 15.9791 17.505 16.1532 17.5694L17.8205 18.1864C17.8752 18.2066 17.9184 18.2498 17.9386 18.3045L18.5556 19.9718C18.62 20.1459 18.8663 20.1459 18.9307 19.9718L19.5477 18.3045C19.5679 18.2498 19.6111 18.2066 19.6658 18.1864L21.3331 17.5694C21.5072 17.505 21.5072 17.2587 21.3331 17.1943L19.6658 16.5774C19.6111 16.5571 19.5679 16.5139 19.5477 16.4592L18.9307 14.7919Z" fill="black"/>
</svg>

<svg xmlns="http://www.w3.org/2000/svg" width="24" height="24" fill="none" viewBox="0 0 24 24"><path fill="#000" fill-rule="evenodd" d="M7.9518 1.8159c-.0644-.1741-.3107-.1741-.3751 0l-.617 1.6672a.2.2 0 0 1-.1181.1182l-1.6672.617c-.1742.0644-.1742.3107 0 .375l1.6672.617a.2.2 0 0 1 .1182.1182l.6169 1.6672c.0644.1742.3107.1742.3751 0l.617-1.6672a.2.2 0 0 1 .1181-.1182l1.6673-.617c.1741-.0643.1741-.3106 0-.375l-1.6673-.617a.2.2 0 0 1-.1181-.1182zm11.2705.3129c.0645-.1741.3107-.1741.3752 0l.6169 1.6672a.2.2 0 0 0 .1182.1182l1.6672.617c.1742.0644.1742.3106 0 .375l-1.6672.617a.2.2 0 0 0-.1182.1182l-.6169 1.6672c-.0645.1742-.3107.1742-.3752 0l-.6169-1.6672a.2.2 0 0 0-.1182-.1182l-1.6672-.617c-.1741-.0644-.1741-.3106 0-.375l1.6672-.617a.2.2 0 0 0 .1182-.1182zm-6.1551 4.6667c.3905-.3905 1.0237-.3905 1.4142 0l2.908 2.908c.3905.3905.3905 1.0237 0 1.4142L6.1088 22.3983c-.3906.3906-1.0237.3906-1.4143 0l-2.908-2.908c-.3905-.3905-.3905-1.0236 0-1.4142zm.7071 2.1213-1.2693 1.2693 1.4938 1.4938 1.2692-1.2693zm-9.8664 9.8664 7.1828-7.1828 1.4938 1.4937-7.1829 7.1829zm15.0228-3.9913c-.0644-.1741-.3107-.1741-.3751 0l-.6169 1.6673a.2.2 0 0 1-.1182.1181l-1.6673.617c-.1741.0644-.1741.3107 0 .3751l1.6673.617a.2.2 0 0 1 .1182.1181l.6169 1.6673c.0644.1741.3107.1741.3751 0l.617-1.6673a.2.2 0 0 1 .1181-.1181l1.6673-.617c.1741-.0644.1741-.3107 0-.3751l-1.6673-.617a.2.2 0 0 1-.1181-.1181z"/></svg>
